X: 4609
T: Bourree
R: reel
M: 4/4
K: Gmajor
|:d2|"G"d2B2"Em"cBAG|"C"e2g4fe|"G"d2cB "Am"AB"D7"cA|"G"B2G4"D7"A2|
"G"B^cdB "A"cdec|"D"defd "A"efge|"D"fga2"A"A2^c2|"D"d6:|
|:a2|"D"a2f2gfed|"G"g2b4e2|"B7"^d2e2f2ga|"Em"g2e4=d2|
"E7"d2cB"Am"c2c2|"D7"c2BA"G"B2d2|"C"efgd "G"cBAG|"D7"FGAF D2d2|
"G"d2B2"Em"cBAG|"C"e2g4fe|"G"d2cB "Am"AB"D7"cA|"G"B2G4F2|
"Em"GABG "D"ABcA|"G"BcdB "C"cdec|"G/D"d2g2"D7"B2AG|"G"G6:|

